X:1
T:Title
%%score { ( 1 3 4 ) | ( 2 5 6 ) }
L:1/8
M:4/4
K:Bb
V:1 treble nm="Grand Piano"
V:3 treble 
V:4 treble 
V:2 treble 
V:5 treble 
V:6 treble 
V:1
 z4 z2[Q:1/4=108] f2 | z2 z a [Geg]2 [Bgb]2 | [Fdf]4 z4 | [GBg]2 [ege']2 [dfd']2 [=Bdf_a=b]2 | %4
[M:3/4] [cefac']2 [A,CF]>[A,CF] [B,F]2 |[M:1/4] [F,F]2 |[M:4/4] [DB]3 [DA] [EG]2 [EB]2 | %7
 [DF]3 [CE] [B,D]2 [DF]2 | [EG]2 [FA]2 [FB]2 [Fd]2 |[M:3/4] d3 c c2 |[M:1/4] F2 | %11
[M:4/4] [DB]3 [DA] [EG]2 [EB]2 | [DF]3 [DG] [DF]2 [DFG]2 | [CFA]2 G2 A2 B2 |[M:3/4] c3 d e2 | %15
[M:1/4] e2 |[M:4/4] [Ad]4 z4 | [DAc]3 [GB] [DGB]2 [D_AB]2 | [EGB]2 [B,FB]2 [Fe]2 [Fd]2 | %19
[M:3/4] d3 c c2 |[M:1/4] c2 |[M:4/4] [DAc]3 [^Fd] [DGB]2 [_DGB]2 | [CGB]3 c A2 F2 | %23
 [FB]2 [Fd]2 [Ff]3 [Ge] |[M:7/8] [Fd]2 [Ec]2 [DB]3 |[M:1/4] F2 |[M:4/4] d6 z2 | B6 z2 | %28
 z2 [B,E]2 z ABc | z2 D2 D2 B>c | A2 [Ag]2 [Ag]2 [Ag]2 | [Ag]3 A A2 G>A | F2 [df]2 [cf]2 f2 | %33
 f6 F2 | d6 z2 | B6 z2 | G6 z2 | z2 E2 [A,CE]2 F2 | G2 [FA]2 [FB]2 [Fc]2 | [Fd]3 [Fe] [Bf]2 [Bg]2 | %40
 [Bf]2 [B=e]2 [Bf]2 [c_e]2 | d6 Bc | A2 [Ag]2 [Ag]2 [Ag]2 | [Ag]3 A A2 G>A | F2 [df]2 [cf]2 f2 | %45
 f6 F2 | G2 [FA]2 [FB]2 [Fc]2 | [Fd]3 [Fe] [Bf]2 [Bg]2 | [Bf]2 [B=e]2 [Bf]2 [Af]2 |[M:3/4] [FB]6 |] %50
V:2
 z4 z2 [Fd]2 | z2 [F,B,]2[K:treble][K:bass] z4 | z2 [F,B,]2[K:treble][K:bass] z4 | %3
 [E,,E,]2 [C,,C,]2 [F,,F,]2 [F,,F,]2 |[M:3/4] [F,,F,]2 [E,,E,]2 [D,,D,]2 |[M:1/4] z2 | %6
[M:4/4] [B,,F,]3 [B,,F,] [B,,B,]2 [B,,G,]2 | [B,,B,]3 [B,,F,] [B,,F,]2 [B,,B,]2 | %8
 [E,B,]2 [E,C]2 [D,B,]2 [B,,B,]2 |[M:3/4] [F,B,F]3 [F,A,F] [F,A,F]2 |[M:1/4] [F,A,E]2 | %11
[M:4/4] [B,,F,]3 [B,,F,] [B,,B,]2 [B,,G,]2 | [B,,B,]3 [B,,B,] [B,,B,]2 =B,,2 | %13
 C,2[K:treble] [B,C=E]2 [A,CF]2 [G,CE]2 |[M:3/4] [F,A,F]3 [F,B,F][K:bass] [F,CF]2 | %15
[M:1/4] [F,CF]2 |[M:4/4] C3 [CA] [^F,C]2 D,2 | G,2 z D G,2 F,2 | E,2 D,2 [C,A,]2 [B,,B,]2 | %19
[M:3/4] [F,B,F]3 [F,A,F] [F,A,F]2 |[M:1/4] [F,A,F]2 |[M:4/4] ^F,2 z D G,2 F,2 | %22
 =E,2 z [C=E] [F,CF]2 [_E,C]2 | [D,B,]2 [B,,B,]2 [D,B,]3 [E,B,] |[M:7/8] [F,B,]2 [F,A,]2 [B,,B,]3 | %25
[M:1/4] z2 |[M:4/4] z2 [B,,B,]2 [B,,B,]2 z2 | z2 B,,2 B,,2[K:treble] c>d | G6[K:bass] [B,E]2 | %29
 [B,D]2 [B,,B,]2 [B,,B,]2[K:treble] [B,DF]2 | [F,EF]2[K:bass] [F,E]2 [F,E]2 [F,E]2 | %31
 [F,E]3 [F,CE] [F,CE]2 [F,A,E]2 | [B,D]2 [B,F]2 [B,E]2 [B,DB]2 | [B,DF]6[K:bass] F,2 | %34
 D6 z2[K:treble] | B,6[K:bass] z2 | G,6 z2 | [F,,,F,,]2 [A,C]2 [F,,,F,,]2 [D,B,]2 | %38
 [E,B,E]2 [C,C]2 [D,B,]2 [F,A,]2 | [B,,B,]3 [C,A,] [D,B,]2 [E,E]2 | %40
 [F,D]2 [^F,_D]2 [=F,=D]2[K:treble] [F,F]2 | [B,FB]6 [B,DF]2 | [F,EF]2 [F,E]2 [F,E]2 [F,E]2 | %43
 [F,E]3 [F,CE] [F,CE]2 [F,A,E]2 | [B,D]2 [B,F]2 [B,E]2 [B,DB]2 | [B,DF]6[K:bass] [D,B,]2 | %46
 [E,B,E]2 [C,C]2 [D,B,]2 [F,A,]2 | [B,,B,]3 [C,A,] [D,B,]2 [E,E]2 | %48
 [F,D]2 [^F,_D]2 [=F,=D]2 [F,F]2 |[M:3/4] [B,D]6 |] %50
V:3
 x8 | [Bdb]4 z4 | z2 z e [DBd]2 [FBf]2 | x8 |[M:3/4] x6 |[M:1/4] x2 |[M:4/4] x8 | x8 | x8 | %9
[M:3/4] x6 |[M:1/4] x2 |[M:4/4] x8 | x8 | x8 |[M:3/4] x6 |[M:1/4] x2 |[M:4/4] z2 z e [Ad]2 [DAc]2 | %17
 x8 | x8 |[M:3/4] x6 |[M:1/4] x2 |[M:4/4] x8 | x8 | x8 |[M:7/8] x7 |[M:1/4] x2 | %26
[M:4/4] z2 F2 F2 e>f | z2 [DF]2 [DF]2 z2 | z4 [B,E]2 z2 | F6 z2 | x8 | x8 | x8 | x8 | %34
 z2 [FB]2 [FB]2 e>f | z2 [DF]2 [DF]2 c>d | z2 [B,C=E]2 z ABc | [F,F]6 z2 | x8 | x8 | x8 | x8 | x8 | %43
 x8 | x8 | x8 | x8 | x8 | x8 |[M:3/4] x6 |] %50
V:4
 x8 | z2 D2 z4 | z2 D2 z4 | x8 |[M:3/4] x6 |[M:1/4] x2 |[M:4/4] x8 | x8 | x8 |[M:3/4] x6 | %10
[M:1/4] x2 |[M:4/4] x8 | x8 | x8 |[M:3/4] x6 |[M:1/4] x2 |[M:4/4] z2 D,2 z4 | x8 | x8 |[M:3/4] x6 | %20
[M:1/4] x2 |[M:4/4] x8 | x8 | x8 |[M:7/8] x7 |[M:1/4] x2 |[M:4/4] x8 | x8 | x8 | x8 | x8 | x8 | %32
 x8 | x8 | x8 | x8 | z4 [B,C=E]2 z2 | x8 | x8 | x8 | x8 | x8 | x8 | x8 | x8 | x8 | x8 | x8 | x8 | %49
[M:3/4] x6 |] %50
V:5
 x8 | [B,,,B,,]2 z[K:treble] [Af][K:bass] [B,,,B,,]2 [G,B,E]2 | %2
 [B,,,B,,]2 z[K:treble] [Ec][K:bass] [B,,,B,,]2 [D,,D,]2 | x8 |[M:3/4] x6 |[M:1/4] x2 |[M:4/4] x8 | %7
 x8 | x8 |[M:3/4] x6 |[M:1/4] x2 |[M:4/4] x8 | x8 | x2[K:treble] x6 |[M:3/4] x4[K:bass] x2 | %15
[M:1/4] x2 |[M:4/4] ^F,2 z2 z4 | z2 D,2 z4 | x8 |[M:3/4] x6 |[M:1/4] x2 |[M:4/4] z2 D,2 z4 | %22
 z2 C,2 z4 | x8 |[M:7/8] x7 |[M:1/4] x2 |[M:4/4] x8 | x6[K:treble] x2 | z2[K:bass] E,2 E,F,G,A, | %29
 x6[K:treble] x2 | x2[K:bass] x6 | x8 | x8 | x6[K:bass] x2 | %34
 z2 [B,,,B,,]2 [B,,,B,,]2 E>[K:treble]F | z2[K:bass] [B,,,B,,]2 [B,,,B,,]2 C>D | %36
 z2 [C,,C,]2 z A,B,C | x8 | x8 | x8 | x6[K:treble] x2 | x8 | x8 | x8 | x8 | x6[K:bass] x2 | x8 | %47
 x8 | x8 |[M:3/4] x6 |] %50
V:6
 x8 | x3[K:treble] x[K:bass] x4 | x3[K:treble] x[K:bass] x4 | x8 |[M:3/4] x6 |[M:1/4] x2 | %6
[M:4/4] x8 | x8 | x8 |[M:3/4] x6 |[M:1/4] x2 |[M:4/4] x8 | x8 | x2[K:treble] x6 | %14
[M:3/4] x4[K:bass] x2 |[M:1/4] x2 |[M:4/4] x8 | x8 | x8 |[M:3/4] x6 |[M:1/4] x2 |[M:4/4] x8 | x8 | %23
 x8 |[M:7/8] x7 |[M:1/4] x2 |[M:4/4] x8 | x6[K:treble] x2 | x2[K:bass] x6 | x6[K:treble] x2 | %30
 x2[K:bass] x6 | x8 | x8 | x6[K:bass] x2 | x15/2[K:treble] x/ | x2[K:bass] x6 | z4 [C,,C,]2 z2 | %37
 x8 | x8 | x8 | x6[K:treble] x2 | x8 | x8 | x8 | x8 | x6[K:bass] x2 | x8 | x8 | x8 |[M:3/4] x6 |] %50

